svg/resize_four_directions.svg

<svg xmlns="http://www.w3.org/2000/svg" viewBox="0 0 32 32" enable-background="new 0 0 32 32"><path d="M 4 4 L 4 5 L 4 13 L 6 13 L 6 7.4375 L 14.5625 16 L 6 24.5625 L 6 19 L 4 19 L 4 27 L 4 28 L 5 28 L 13 28 L 13 26 L 7.4375 26 L 16 17.4375 L 24.5625 26 L 19 26 L 19 28 L 27 28 L 28 28 L 28 27 L 28 19 L 26 19 L 26 24.5625 L 17.4375 16 L 26 7.4375 L 26 13 L 28 13 L 28 5 L 28 4 L 27 4 L 19 4 L 19 6 L 24.5625 6 L 16 14.5625 L 7.4375 6 L 13 6 L 13 4 L 5 4 L 4 4 z"/></svg>

<svg xmlns="http://www.w3.org/2000/svg" viewBox="0 0 32 32"><path d="M4 4v9h2V7.437L14.563 16 6 24.563V19H4v9h9v-2H7.437L16 17.437 24.563 26H19v2h9v-9h-2v5.563L17.437 16 26 7.437V13h2V4h-9v2h5.563L16 14.563 7.437 6H13V4H4z"/></svg>
